papirus/16x16/apps/kdepim-googledrive.svg

<svg clip-rule="evenodd" fill-rule="evenodd" height="16" image-rendering="optimizeQuality" shape-rendering="geometricPrecision" text-rendering="geometricPrecision" viewBox="0 0 1181.0979 1181.0977" width="16" xmlns="http://www.w3.org/2000/svg"><path d="m415.06089 147.63714l-268.51521 465.05728h351.04212l92.90765-160.55549-66.43676-171.62829z" fill="#6cbf48"/><path d="m415.02142 147.63714l351.04727.42032 335.78541 581.59731-179.12533 38.05874-171.92193-38.47907z" fill="#fcc345"/><path d="m254.39573 1033.4605l51.49435-199.31024 124.43538-105.19153 671.52864.69598-175.88764 303.80579z" fill="#4e8dcc"/><path d="m146.54568 612.69442l-67.301818 116.61034 175.088528 304.15574 243.25541-420.76608-147.40655-88.58234z" fill="#6cbf48"/></svg>

<?xml version="1.0" encoding="UTF-8" standalone="no"?>
<!-- Creator: CorelDRAW X6 -->

<svg
   xmlns:dc="http://purl.org/dc/elements/1.1/"
   xmlns:cc="http://creativecommons.org/ns#"
   xmlns:rdf="http://www.w3.org/1999/02/22-rdf-syntax-ns#"
   xmlns:svg="http://www.w3.org/2000/svg"
   xmlns="http://www.w3.org/2000/svg"
   xmlns:sodipodi="http://sodipodi.sourceforge.net/DTD/sodipodi-0.dtd"
   xmlns:inkscape="http://www.inkscape.org/namespaces/inkscape"
   id="svg2"
   style="clip-rule:evenodd;fill-rule:evenodd;image-rendering:optimizeQuality;shape-rendering:geometricPrecision;text-rendering:geometricPrecision"
   xml:space="preserve"
   height="16"
   viewBox="0 0 1181.0979 1181.0977"
   width="16"
   version="1.1"
   inkscape:version="0.91 r13725"
   sodipodi:docname="kdepim-googledrive.svg"><sodipodi:namedview
     pagecolor="#ffffff"
     bordercolor="#666666"
     borderopacity="1"
     objecttolerance="10"
     gridtolerance="10"
     guidetolerance="10"
     inkscape:pageopacity="0"
     inkscape:pageshadow="2"
     inkscape:window-width="1600"
     inkscape:window-height="847"
     id="namedview15"
     showgrid="false"
     inkscape:zoom="8.08"
     inkscape:cx="-19.262392"
     inkscape:cy="16"
     inkscape:window-x="0"
     inkscape:window-y="0"
     inkscape:window-maximized="1"
     inkscape:current-layer="svg2" /><metadata
     id="metadata18"><rdf:RDF><cc:Work
         rdf:about=""><dc:format>image/svg+xml</dc:format><dc:type
           rdf:resource="http://purl.org/dc/dcmitype/StillImage" /><dc:title /></cc:Work></rdf:RDF></metadata><defs
     id="defs4"><style
       id="style6"
       type="text/css"><![CDATA[
    .fil2 {fill:#11A861}
    .fil0 {fill:#3777E3}
    .fil1 {fill:#FFCF63}
   ]]></style></defs><path
     id="path4289"
     d="m 415.06089,147.63714 -268.51521,465.05728 351.04212,0 92.90765,-160.55549 -66.43676,-171.62829 -108.9978,-132.8735 z"
     style="fill:#6cbf48;fill-opacity:1;stroke:none"
     inkscape:connector-curvature="0" /><path
     inkscape:connector-curvature="0"
     id="path4291"
     d="m 415.02142,147.63714 351.04727,0.42032 335.78541,581.59731 -179.12533,38.05874 -171.92193,-38.47907 z"
     style="fill:#fcc345;fill-opacity:1;stroke:none"
     sodipodi:nodetypes="cccccc" /><path
     inkscape:connector-curvature="0"
     id="path4293"
     d="M 254.39573,1033.4605 305.89008,834.15026 430.32546,728.95873 1101.8541,729.65471 925.96646,1033.4605 Z"
     style="fill:#4e8dcc;fill-opacity:1;stroke:none"
     sodipodi:nodetypes="cccccc" /><path
     sodipodi:nodetypes="cccccc"
     inkscape:connector-curvature="0"
     id="path4301"
     d="M 146.54568,612.69442 79.243862,729.30476 254.33239,1033.4605 497.5878,612.69442 350.18125,524.11208 Z"
     style="fill:#6cbf48;fill-opacity:1;stroke:none" /></svg>
